Newaita-dark/apps/24/spotify-client.svg

<svg height="24pt" viewBox="0 0 24 24" width="24pt" xmlns="http://www.w3.org/2000/svg" xmlns:xlink="http://www.w3.org/1999/xlink"><linearGradient id="a"><stop offset="0" stop-opacity=".313725"/><stop offset=".222222" stop-opacity=".27451"/><stop offset="1" stop-opacity="0"/></linearGradient><radialGradient id="b" cx="450.90894" cy="189.57936" gradientTransform="matrix(.00000013 -.0585994 -.105479 -.00000008 33.392364 47.696499)" gradientUnits="userSpaceOnUse" r="21.166656" xlink:href="#a"/><radialGradient id="c" cx="450.90894" cy="189.57936" gradientTransform="matrix(-.00000013 .0585994 .105479 .00000008 -9.57759 -5.645611)" gradientUnits="userSpaceOnUse" r="21.166656" xlink:href="#a"/><radialGradient id="d" cx="450.90894" cy="189.57936" gradientTransform="matrix(-.00000013 -.0585994 .105479 -.00000008 -9.57759 47.696499)" gradientUnits="userSpaceOnUse" r="21.166656" xlink:href="#a"/><radialGradient id="e" cx="450.90894" cy="189.57936" gradientTransform="matrix(.00000013 .0585994 -.105479 .00000008 33.392363 -5.645611)" gradientUnits="userSpaceOnUse" r="21.166656" xlink:href="#a"/><linearGradient id="f" gradientTransform="matrix(.01002 0 0 .0468795 9.349039 10.079088)" gradientUnits="userSpaceOnUse" x1="255.32306" x2="255.32304" y1="233.5" y2="254.66666"><stop offset="0" stop-opacity=".27451"/><stop offset="1" stop-opacity="0"/></linearGradient><linearGradient id="g" gradientUnits="userSpaceOnUse" x1="254" x2="254" y1="-168.66667" y2="233.5"><stop offset="0" stop-color="#81c784"/><stop offset="1" stop-color="#66bb6a"/></linearGradient><linearGradient id="h" gradientTransform="matrix(.0122151 .00215385 -.00215385 .0122151 2.161661 -1.973696)" gradientUnits="userSpaceOnUse" x1="871.21808" x2="1102.7169" y1="185.77885" y2="1729.0249"><stop offset="0" stop-color="#e0e0e0"/><stop offset="1" stop-color="#eee"/></linearGradient><path d="m13.644531 21.027344h1.984375v-.996094h-1.984375zm0 0" fill="url(#b)"/><path d="m10.171875 21.027344h-1.984375v.992187h1.984375zm0 0" fill="url(#c)"/><path d="m10.171875 21.027344h-1.984375v-.996094h1.984375zm0 0" fill="url(#d)"/><path d="m13.644531 21.027344h1.984375v.992187h-1.984375zm0 0" fill="url(#e)"/><path d="m10.171875 20.777344h3.472656v1.242187h-3.472656zm0 0" fill="url(#f)"/><path d="m253.975747-168.671091c111.072726 0 201.147458 89.991406 201.147458 201.064133 0 111.072726-90.074732 201.147458-201.147458 201.147458-110.989402 0-201.064133-90.074732-201.064133-201.147458 0-111.072727 90.074731-201.064133 201.064133-201.064133zm0 0" fill="url(#g)" stroke="#333" stroke-linecap="round" stroke-width="3" transform="matrix(.0468795 0 0 .0468795 0 10.079087)"/><path d="m11.90625 21.027344c-5.222656 0-9.425781-4.207032-9.425781-9.429688 0-.03125 0-.058594 0-.089844.050781 5.179688 4.234375 9.332032 9.425781 9.332032s9.378906-4.152344 9.425781-9.332032c0 .03125.003907.058594.003907.089844 0 5.222656-4.207032 9.429688-9.429688 9.429688zm0 0" fill-opacity=".196078"/><path d="m11.90625 2.171875c-5.222656 0-9.425781 4.203125-9.425781 9.425781v.09375c.050781-5.179687 4.234375-9.335937 9.425781-9.335937s9.378906 4.15625 9.425781 9.335937c0-.03125.003907-.0625.003907-.09375 0-5.222656-4.207032-9.425781-9.429688-9.425781zm0 0" fill="#fff" fill-opacity=".392157"/><path d="m11.90625 2.101562c-5.257812 0-9.496094 4.238282-9.496094 9.496094 0 5.261719 4.238282 9.5 9.496094 9.5 5.261719 0 9.5-4.238281 9.5-9.5 0-5.257812-4.238281-9.496094-9.5-9.496094zm0 .140626c5.1875 0 9.359375 4.171874 9.359375 9.355468 0 5.1875-4.171875 9.359375-9.359375 9.359375-5.183594 0-9.355469-4.171875-9.355469-9.359375 0-5.183594 4.171875-9.355468 9.355469-9.355468zm0 0" fill="#212121"/><path d="m12.734375 6.636719c-1.1875-.207031-2.367187-.242188-3.503906-.121094-3.636719.625-3.089844 3.234375-.460938 2.601563 1.132813-.230469 2.328125-.257813 3.535157-.042969 1.210937.210937 2.324218.644531 3.304687 1.25 2.257813 1.492187 3.664063-.769531.460937-2.601563-1.03125-.503906-2.148437-.875-3.335937-1.085937zm-.6875 3.902343c-1.1875-.210937-2.367187-.242187-3.503906-.121093-2.574219.308593-2.289063 2.25-.363281 2.050781 1.132812-.183594 2.320312-.1875 3.523437.023438 1.199219.214843 2.3125.621093 3.316406 1.183593 1.742188.84375 2.675781-.882812.363281-2.050781-1.03125-.503906-2.148437-.875-3.335937-1.085938zm-.605469 3.421876c-1.1875-.210938-2.363281-.246094-3.503906-.121094-1.53125.113281-1.179688 1.6875-.269531 1.535156 1.136719-.167969 2.320312-.160156 3.515625.050781 1.199218.210938 2.3125.605469 3.324218 1.152344.800782.457031 1.671876-.902344.269532-1.535156-1.027344-.503907-2.144532-.875-3.335938-1.082031zm0 0" fill="url(#h)"/><path d="m10.527344 6.445312c-.4375 0-.871094.023438-1.296875.070313-1.980469.339844-2.71875 1.269531-2.558594 1.941406.136719-.605469.925781-1.289062 2.558594-1.570312 1.136719-.121094 2.316406-.085938 3.503906.121093 1.1875.210938 2.304687.582032 3.335937 1.085938 1.207032.691406 1.757813 1.441406 1.859376 2.03125.117187-.617188-.378907-1.554688-1.859376-2.402344-1.03125-.503906-2.148437-.875-3.335937-1.085937-.742187-.128907-1.480469-.191407-2.207031-.191407zm-.691406 3.902344c-.433594 0-.867188.023438-1.292969.070313-1.460938.175781-2 .875-1.84375 1.414062.125-.449219.703125-.90625 1.84375-1.042969 1.136719-.121093 2.316406-.085937 3.503906.121094 1.1875.210938 2.304687.582032 3.335937 1.085938.847657.429687 1.257813.933594 1.351563 1.355468.121094-.472656-.238281-1.164062-1.351563-1.726562-1.03125-.503906-2.148437-.875-3.335937-1.085938-.742187-.128906-1.480469-.191406-2.210937-.191406zm-.601563 3.421875c-.4375 0-.867187.023438-1.296875.070313-.878906.0625-1.136719.609375-1.027344 1.035156.085938-.320312.394532-.617188 1.027344-.664062 1.140625-.121094 2.316406-.089844 3.503906.121093 1.191406.210938 2.308594.578125 3.335938 1.085938.433594.195312.652344.460937.71875.71875.09375-.351563-.070313-.800781-.71875-1.09375-1.027344-.503907-2.144532-.875-3.335938-1.082031-.742187-.132813-1.480468-.195313-2.207031-.191407zm0 0" fill="#fff"/><path d="m271.640726-73.430186c-25.330914-4.416245-50.495178-5.166173-74.742862-2.583087-77.575925 13.332061-65.910373 68.993412-9.832395 55.494701 24.16436-4.916197 49.661925-5.499475 75.409466-.916579 25.830867 4.49957 49.578599 13.748687 70.493268 26.66412 48.162068 31.830294 78.159203-16.415099 9.832395-55.4947-21.9979-10.748974-45.828957-18.664885-71.159872-23.164455zm-14.665266 83.242051c-25.330914-4.49957-50.495178-5.166173-74.742862-2.583087-54.911423 6.582705-48.828671 47.995417-7.74926 43.745823 24.164359-3.916293 49.495273-3.999618 75.159489.499952 25.58089 4.582896 49.328623 13.248735 70.743244 25.247589 37.163118 17.998281 57.077883-18.831535 7.74926-43.745823-21.997899-10.748973-45.828957-18.664884-71.159871-23.164454zm-12.915433 72.993029c-25.330915-4.49957-50.411853-5.249498-74.742863-2.583086-32.663547 2.416436-25.164263 35.996562-5.749451 32.746873 24.247685-3.582992 49.495274-3.416341 74.992839 1.083229 25.58089 4.499571 49.328623 12.915434 70.909895 24.580986 17.081702 9.749069 35.663261-19.248161 5.749451-32.746872-21.914574-10.748974-45.745632-18.664885-71.159871-23.08113zm0 0" fill="none" stroke="#212121" stroke-linecap="round" stroke-width="3" transform="matrix(.0468795 0 0 .0468795 0 10.079087)"/><path d="m6.71875 8.5c-.320312.804688.507812 1.550781 2.050781 1.179688 1.132813-.230469 2.328125-.257813 3.535157-.042969 1.210937.214843 2.324218.644531 3.304687 1.25 1.480469.980469 2.59375.34375 2.285156-.726563-.226562.621094-1.144531.824219-2.285156.070313-.980469-.605469-2.09375-1.035157-3.304687-1.25-1.207032-.210938-2.402344-.1875-3.535157.042969-1.097656.265624-1.835937-.035157-2.050781-.523438zm.039062 3.375c-.308593.613281.253907 1.277344 1.421876 1.160156 1.132812-.1875 2.320312-.191406 3.523437.023438 1.199219.210937 2.3125.617187 3.316406 1.179687 1.179688.570313 1.988281-.035156 1.667969-.847656-.203125.417969-.847656.589844-1.667969.191406-1.003906-.5625-2.117187-.96875-3.316406-1.179687-1.203125-.210938-2.390625-.210938-3.523437-.023438-.738282.074219-1.234376-.164062-1.421876-.503906zm.207032 3.050781c-.242188.484375.113281 1.109375.703125 1.011719 1.136719-.167969 2.320312-.160156 3.515625.050781 1.199218.210938 2.3125.609375 3.324218 1.15625.597657.339844 1.234376-.335937.933594-.960937-.160156.328125-.554687.519531-.933594.304687-1.011718-.546875-2.125-.945312-3.324218-1.15625-1.195313-.210937-2.378906-.21875-3.515625-.050781-.328125.054688-.582031-.113281-.703125-.355469zm0 0" fill-opacity=".235294"/></svg>

<?xml version="1.0" encoding="UTF-8"?>
<svg xmlns="http://www.w3.org/2000/svg" xmlns:xlink="http://www.w3.org/1999/xlink" width="24pt" height="24pt" viewBox="0 0 24 24" version="1.1">
<defs>
<radialGradient id="radial0" gradientUnits="userSpaceOnUse" cx="450.90894" cy="189.57936" fx="450.90894" fy="189.57936" r="21.166656" gradientTransform="matrix(0.000000130628,-0.0585994,-0.105479,-0.0000000761539,33.392364,47.696499)">
<stop offset="0" style="stop-color:rgb(0%,0%,0%);stop-opacity:0.313725;"/>
<stop offset="0.222222" style="stop-color:rgb(0%,0%,0%);stop-opacity:0.27451;"/>
<stop offset="1" style="stop-color:rgb(0%,0%,0%);stop-opacity:0;"/>
</radialGradient>
<radialGradient id="radial1" gradientUnits="userSpaceOnUse" cx="450.90894" cy="189.57936" fx="450.90894" fy="189.57936" r="21.166656" gradientTransform="matrix(-0.000000130628,0.0585994,0.105479,0.0000000761539,-9.57759,-5.645611)">
<stop offset="0" style="stop-color:rgb(0%,0%,0%);stop-opacity:0.313725;"/>
<stop offset="0.222222" style="stop-color:rgb(0%,0%,0%);stop-opacity:0.27451;"/>
<stop offset="1" style="stop-color:rgb(0%,0%,0%);stop-opacity:0;"/>
</radialGradient>
<radialGradient id="radial2" gradientUnits="userSpaceOnUse" cx="450.90894" cy="189.57936" fx="450.90894" fy="189.57936" r="21.166656" gradientTransform="matrix(-0.000000130628,-0.0585994,0.105479,-0.0000000761539,-9.57759,47.696499)">
<stop offset="0" style="stop-color:rgb(0%,0%,0%);stop-opacity:0.313725;"/>
<stop offset="0.222222" style="stop-color:rgb(0%,0%,0%);stop-opacity:0.27451;"/>
<stop offset="1" style="stop-color:rgb(0%,0%,0%);stop-opacity:0;"/>
</radialGradient>
<radialGradient id="radial3" gradientUnits="userSpaceOnUse" cx="450.90894" cy="189.57936" fx="450.90894" fy="189.57936" r="21.166656" gradientTransform="matrix(0.000000130628,0.0585994,-0.105479,0.0000000761539,33.392363,-5.645611)">
<stop offset="0" style="stop-color:rgb(0%,0%,0%);stop-opacity:0.313725;"/>
<stop offset="0.222222" style="stop-color:rgb(0%,0%,0%);stop-opacity:0.27451;"/>
<stop offset="1" style="stop-color:rgb(0%,0%,0%);stop-opacity:0;"/>
</radialGradient>
<linearGradient id="linear0" gradientUnits="userSpaceOnUse" x1="255.32306" y1="233.5" x2="255.32304" y2="254.66666" gradientTransform="matrix(0.01002,0,0,0.0468795,9.349039,10.079088)">
<stop offset="0" style="stop-color:rgb(0%,0%,0%);stop-opacity:0.27451;"/>
<stop offset="1" style="stop-color:rgb(0%,0%,0%);stop-opacity:0;"/>
</linearGradient>
<linearGradient id="linear1" gradientUnits="userSpaceOnUse" x1="254" y1="-168.66667" x2="254" y2="233.5" gradientTransform="matrix(1,0,0,1,0,0)">
<stop offset="0" style="stop-color:rgb(50.588235%,78.039216%,51.764706%);stop-opacity:1;"/>
<stop offset="1" style="stop-color:rgb(40%,73.333333%,41.568627%);stop-opacity:1;"/>
</linearGradient>
<linearGradient id="linear2" gradientUnits="userSpaceOnUse" x1="871.21808" y1="185.77885" x2="1102.7169" y2="1729.0249" gradientTransform="matrix(0.0122151,0.00215385,-0.00215385,0.0122151,2.161661,-1.973696)">
<stop offset="0" style="stop-color:rgb(87.843137%,87.843137%,87.843137%);stop-opacity:1;"/>
<stop offset="1" style="stop-color:rgb(93.333333%,93.333333%,93.333333%);stop-opacity:1;"/>
</linearGradient>
</defs>
<g id="surface1">
<path style=" stroke:none;fill-rule:nonzero;fill:url(#radial0);" d="M 13.644531 21.027344 L 15.628906 21.027344 L 15.628906 20.03125 L 13.644531 20.03125 Z M 13.644531 21.027344 "/>
<path style=" stroke:none;fill-rule:nonzero;fill:url(#radial1);" d="M 10.171875 21.027344 L 8.1875 21.027344 L 8.1875 22.019531 L 10.171875 22.019531 Z M 10.171875 21.027344 "/>
<path style=" stroke:none;fill-rule:nonzero;fill:url(#radial2);" d="M 10.171875 21.027344 L 8.1875 21.027344 L 8.1875 20.03125 L 10.171875 20.03125 Z M 10.171875 21.027344 "/>
<path style=" stroke:none;fill-rule:nonzero;fill:url(#radial3);" d="M 13.644531 21.027344 L 15.628906 21.027344 L 15.628906 22.019531 L 13.644531 22.019531 Z M 13.644531 21.027344 "/>
<path style=" stroke:none;fill-rule:nonzero;fill:url(#linear0);" d="M 10.171875 20.777344 L 13.644531 20.777344 L 13.644531 22.019531 L 10.171875 22.019531 Z M 10.171875 20.777344 "/>
<path style="fill-rule:nonzero;fill:url(#linear1);stroke-width:3;stroke-linecap:round;stroke-linejoin:miter;stroke:rgb(20%,20%,20%);stroke-opacity:1;stroke-miterlimit:4;" d="M 253.975747 -168.671091 C 365.048473 -168.671091 455.123205 -78.679685 455.123205 32.393042 C 455.123205 143.465768 365.048473 233.5405 253.975747 233.5405 C 142.986345 233.5405 52.911614 143.465768 52.911614 32.393042 C 52.911614 -78.679685 142.986345 -168.671091 253.975747 -168.671091 Z M 253.975747 -168.671091 " transform="matrix(0.0468795,0,0,0.0468795,0,10.079087)"/>
<path style=" stroke:none;fill-rule:nonzero;fill:rgb(0%,0%,0%);fill-opacity:0.196078;" d="M 11.90625 21.027344 C 6.683594 21.027344 2.480469 16.820312 2.480469 11.597656 C 2.480469 11.566406 2.480469 11.539062 2.480469 11.507812 C 2.53125 16.6875 6.714844 20.839844 11.90625 20.839844 C 17.097656 20.839844 21.285156 16.6875 21.332031 11.507812 C 21.332031 11.539062 21.335938 11.566406 21.335938 11.597656 C 21.335938 16.820312 17.128906 21.027344 11.90625 21.027344 Z M 11.90625 21.027344 "/>
<path style=" stroke:none;fill-rule:nonzero;fill:rgb(100%,100%,100%);fill-opacity:0.392157;" d="M 11.90625 2.171875 C 6.683594 2.171875 2.480469 6.375 2.480469 11.597656 C 2.480469 11.628906 2.480469 11.660156 2.480469 11.691406 C 2.53125 6.511719 6.714844 2.355469 11.90625 2.355469 C 17.097656 2.355469 21.285156 6.511719 21.332031 11.691406 C 21.332031 11.660156 21.335938 11.628906 21.335938 11.597656 C 21.335938 6.375 17.128906 2.171875 11.90625 2.171875 Z M 11.90625 2.171875 "/>
<path style=" stroke:none;fill-rule:nonzero;fill:rgb(12.941176%,12.941176%,12.941176%);fill-opacity:1;" d="M 11.90625 2.101562 C 6.648438 2.101562 2.410156 6.339844 2.410156 11.597656 C 2.410156 16.859375 6.648438 21.097656 11.90625 21.097656 C 17.167969 21.097656 21.40625 16.859375 21.40625 11.597656 C 21.40625 6.339844 17.167969 2.101562 11.90625 2.101562 Z M 11.90625 2.242188 C 17.09375 2.242188 21.265625 6.414062 21.265625 11.597656 C 21.265625 16.785156 17.09375 20.957031 11.90625 20.957031 C 6.722656 20.957031 2.550781 16.785156 2.550781 11.597656 C 2.550781 6.414062 6.722656 2.242188 11.90625 2.242188 Z M 11.90625 2.242188 "/>
<path style=" stroke:none;fill-rule:nonzero;fill:url(#linear2);" d="M 12.734375 6.636719 C 11.546875 6.429688 10.367188 6.394531 9.230469 6.515625 C 5.59375 7.140625 6.140625 9.75 8.769531 9.117188 C 9.902344 8.886719 11.097656 8.859375 12.304688 9.074219 C 13.515625 9.285156 14.628906 9.71875 15.609375 10.324219 C 17.867188 11.816406 19.273438 9.554688 16.070312 7.722656 C 15.039062 7.21875 13.921875 6.847656 12.734375 6.636719 Z M 12.046875 10.539062 C 10.859375 10.328125 9.679688 10.296875 8.542969 10.417969 C 5.96875 10.726562 6.253906 12.667969 8.179688 12.46875 C 9.3125 12.285156 10.5 12.28125 11.703125 12.492188 C 12.902344 12.707031 14.015625 13.113281 15.019531 13.675781 C 16.761719 14.519531 17.695312 12.792969 15.382812 11.625 C 14.351562 11.121094 13.234375 10.75 12.046875 10.539062 Z M 11.441406 13.960938 C 10.253906 13.75 9.078125 13.714844 7.9375 13.839844 C 6.40625 13.953125 6.757812 15.527344 7.667969 15.375 C 8.804688 15.207031 9.988281 15.214844 11.183594 15.425781 C 12.382812 15.636719 13.496094 16.03125 14.507812 16.578125 C 15.308594 17.035156 16.179688 15.675781 14.777344 15.042969 C 13.75 14.539062 12.632812 14.167969 11.441406 13.960938 Z M 11.441406 13.960938 "/>
<path style=" stroke:none;fill-rule:nonzero;fill:rgb(100%,100%,100%);fill-opacity:1;" d="M 10.527344 6.445312 C 10.089844 6.445312 9.65625 6.46875 9.230469 6.515625 C 7.25 6.855469 6.511719 7.785156 6.671875 8.457031 C 6.808594 7.851562 7.597656 7.167969 9.230469 6.886719 C 10.367188 6.765625 11.546875 6.800781 12.734375 7.007812 C 13.921875 7.21875 15.039062 7.589844 16.070312 8.09375 C 17.277344 8.785156 17.828125 9.535156 17.929688 10.125 C 18.046875 9.507812 17.550781 8.570312 16.070312 7.722656 C 15.039062 7.21875 13.921875 6.847656 12.734375 6.636719 C 11.992188 6.507812 11.253906 6.445312 10.527344 6.445312 Z M 9.835938 10.347656 C 9.402344 10.347656 8.96875 10.371094 8.542969 10.417969 C 7.082031 10.59375 6.542969 11.292969 6.699219 11.832031 C 6.824219 11.382812 7.402344 10.925781 8.542969 10.789062 C 9.679688 10.667969 10.859375 10.703125 12.046875 10.910156 C 13.234375 11.121094 14.351562 11.492188 15.382812 11.996094 C 16.230469 12.425781 16.640625 12.929688 16.734375 13.351562 C 16.855469 12.878906 16.496094 12.1875 15.382812 11.625 C 14.351562 11.121094 13.234375 10.75 12.046875 10.539062 C 11.304688 10.410156 10.566406 10.347656 9.835938 10.347656 Z M 9.234375 13.769531 C 8.796875 13.769531 8.367188 13.792969 7.9375 13.839844 C 7.058594 13.902344 6.800781 14.449219 6.910156 14.875 C 6.996094 14.554688 7.304688 14.257812 7.9375 14.210938 C 9.078125 14.089844 10.253906 14.121094 11.441406 14.332031 C 12.632812 14.542969 13.75 14.910156 14.777344 15.417969 C 15.210938 15.613281 15.429688 15.878906 15.496094 16.136719 C 15.589844 15.785156 15.425781 15.335938 14.777344 15.042969 C 13.75 14.539062 12.632812 14.167969 11.441406 13.960938 C 10.699219 13.828125 9.960938 13.765625 9.234375 13.769531 Z M 9.234375 13.769531 "/>
<path style="fill:none;stroke-width:3;stroke-linecap:round;stroke-linejoin:miter;stroke:rgb(12.941176%,12.941176%,12.941176%);stroke-opacity:1;stroke-miterlimit:4;" d="M 271.640726 -73.430186 C 246.309812 -77.846431 221.145548 -78.596359 196.897864 -76.013273 C 119.321939 -62.681212 130.987491 -7.019861 187.065469 -20.518572 C 211.229829 -25.434769 236.727394 -26.018047 262.474935 -21.435151 C 288.305802 -16.935581 312.053534 -7.686464 332.968203 5.228969 C 381.130271 37.059263 411.127406 -11.18613 342.800598 -50.265731 C 320.802698 -61.014705 296.971641 -68.930616 271.640726 -73.430186 Z M 256.97546 9.811865 C 231.644546 5.312295 206.480282 4.645692 182.232598 7.228778 C 127.321175 13.811483 133.403927 55.224195 174.483338 50.974601 C 198.647697 47.058308 223.978611 46.974983 249.642827 51.474553 C 275.223717 56.057449 298.97145 64.723288 320.386071 76.722142 C 357.549189 94.720423 377.463954 57.890607 328.135331 32.976319 C 306.137432 22.227346 282.306374 14.311435 256.97546 9.811865 Z M 244.060027 82.804894 C 218.729112 78.305324 193.648174 77.555396 169.317164 80.221808 C 136.653617 82.638244 144.152901 116.21837 163.567713 112.968681 C 187.815398 109.385689 213.062987 109.55234 238.560552 114.05191 C 264.141442 118.551481 287.889175 126.967344 309.470447 138.632896 C 326.552149 148.381965 345.133708 119.384735 315.219898 105.886024 C 293.305324 95.13705 269.474266 87.221139 244.060027 82.804894 Z M 244.060027 82.804894 " transform="matrix(0.0468795,0,0,0.0468795,0,10.079087)"/>
<path style=" stroke:none;fill-rule:nonzero;fill:rgb(0%,0%,0%);fill-opacity:0.235294;" d="M 6.71875 8.5 C 6.398438 9.304688 7.226562 10.050781 8.769531 9.679688 C 9.902344 9.449219 11.097656 9.421875 12.304688 9.636719 C 13.515625 9.851562 14.628906 10.28125 15.609375 10.886719 C 17.089844 11.867188 18.203125 11.230469 17.894531 10.160156 C 17.667969 10.78125 16.75 10.984375 15.609375 10.230469 C 14.628906 9.625 13.515625 9.195312 12.304688 8.980469 C 11.097656 8.769531 9.902344 8.792969 8.769531 9.023438 C 7.671875 9.289062 6.933594 8.988281 6.71875 8.5 Z M 6.757812 11.875 C 6.449219 12.488281 7.011719 13.152344 8.179688 13.035156 C 9.3125 12.847656 10.5 12.84375 11.703125 13.058594 C 12.902344 13.269531 14.015625 13.675781 15.019531 14.238281 C 16.199219 14.808594 17.007812 14.203125 16.6875 13.390625 C 16.484375 13.808594 15.839844 13.980469 15.019531 13.582031 C 14.015625 13.019531 12.902344 12.613281 11.703125 12.402344 C 10.5 12.191406 9.3125 12.191406 8.179688 12.378906 C 7.441406 12.453125 6.945312 12.214844 6.757812 11.875 Z M 6.964844 14.925781 C 6.722656 15.410156 7.078125 16.035156 7.667969 15.9375 C 8.804688 15.769531 9.988281 15.777344 11.183594 15.988281 C 12.382812 16.199219 13.496094 16.597656 14.507812 17.144531 C 15.105469 17.484375 15.742188 16.808594 15.441406 16.183594 C 15.28125 16.511719 14.886719 16.703125 14.507812 16.488281 C 13.496094 15.941406 12.382812 15.542969 11.183594 15.332031 C 9.988281 15.121094 8.804688 15.113281 7.667969 15.28125 C 7.339844 15.335938 7.085938 15.167969 6.964844 14.925781 Z M 6.964844 14.925781 "/>
</g>
</svg>
